X: 20584
T: A SCOTCH REEL
C:
%R: reel
B: Elias Howe "The Musician's Companion" 1843 p.58 #4
S: http://imslp.org/wiki/The_Musician's_Companion_(Howe,_Elias)
Z: 2015 John Chambers <jc:trillian.mit.edu>
M: C
L: 1/8
K: G
% - - - - - - - - - - - - - - - - - - - - - - - - -
|:\
gbaf gdcTB | cdeg fdd2 | gbaf gdcTB | cedc BGG2 ::\
DGBG dGBG | DGBG  Bcde | DGBG dGBG | cedc BGG2 :|
% - - - - - - - - - - - - - - - - - - - - - - - - -

%%sep 1 1 500

